X:1
T:Froggy's First Jump
R:reel
C:Dave Whetstone
S:Over the Water
O:Duns Tew
P:A(A2B2)4A
M:C
L:1/8
Q:1/4=138
K:G
P:A
dedc BGBd | c2 B2 A3 c |[1 BcBA G2 B2 | A2 FG A4 :|[2 BcBG E2 F2 | G4 G4 |]
P:B
AFGA B2 A2 | G3 A G3 A | BGAB c2 e2 | d6 Bc | d4 c4 | B4 A3 c | BcBG E2 F2 | G4  G4 :|
</abc>
